public/avatar/emote/16.svg

<svg xmlns:xlink="http://www.w3.org/1999/xlink" height="100.8" width="132.65" xmlns="http://www.w3.org/2000/svg"><g transform="translate(77.75 73.55)"><use height="10.9" transform="translate(-12.25 -3.45)" width="24.45" xlink:href="#a"/><use height="29.8" transform="translate(-45.1 -73.55)" width="100" xlink:href="#b"/></g><defs><g id="a"><path d="M-10.7 6.7q10.35-2.25 21.45.25" fill="none" stroke="#333" stroke-linecap="round" stroke-linejoin="round" transform="translate(12.25 3.45)"/><path d="m2.45-2.7-.1.8q-.05.75.35 1.3.4.5.95.5.55 0 .95-.5.4-.55.4-1.3l-.1-.8h3.4v.4L8.05-.45l-.9 1.6q-1 1.2-2.3 1.4l-.5.05-1-.15q-1.05-.35-1.8-1.3Q.5-.2.4-1.95v-.75h2.05m1.3 0 .1.35-.2.45-.3.2L3-1.9q-.15-.2-.15-.45l.05-.35h.85M-8-.4q-.3-.85-.25-1.85v-.45h3.55l-.1.8q-.05.75.35 1.3.4.5.95.5.55 0 .95-.5.4-.55.4-1.3l-.1-.8h1.9v.75Q-.45-.15-1.5 1.2l-1.3 1.1-1.5.35-1.1-.2q-.95-.3-1.7-1.25Q-7.7.5-8-.4m3.8-2.4h.75l.05.1.1.35-.2.45-.3.2q-.25-.05-.35-.2l-.15-.45.05-.35.05-.1" fill="#fff" fill-rule="evenodd" transform="translate(12.25 3.45)"/><path d="m4.9-2.7.1.8q0 .75-.4 1.3-.4.5-.95.5-.55 0-.95-.5-.4-.55-.35-1.3l.1-.8h.45l-.05.35q0 .25.15.45l.35.2.3-.2.2-.45-.1-.35H4.9m-9.6 0v-.1h.5l-.05.1-.05.35.15.45q.1.15.35.2l.3-.2.2-.45-.1-.35-.05-.1h1.2v.1l.1.8q0 .75-.4 1.3-.4.5-.95.5-.55 0-.95-.5-.4-.55-.35-1.3l.1-.8" fill-rule="evenodd" transform="translate(12.25 3.45)"/><path d="M.4-1.95Q.5-.2 1.55 1.15q.75.95 1.8 1.3L.9 2.3h-3.7l1.3-1.1Q-.45-.15-.35-1.95H.4m4.45 4.5q1.3-.2 2.3-1.4l.9-1.6.6.3q3.5 1.8 3.55 2.8 0 .95-3.15.4l-4.2-.5m-10.25-.1-2.75.4-4.1-.2q0-.95 3.7-2.75L-8-.4q.3.9.9 1.6.75.95 1.7 1.25" fill="#6596cc" fill-opacity=".431" fill-rule="evenodd" transform="translate(12.25 3.45)"/><path d="M.4-2.7v.75Q.5-.2 1.55 1.15q.75.95 1.8 1.3l1 .15.5-.05q1.3-.2 2.3-1.4l.9-1.6.25-1.85v-.4M-8-.4q-.3-.85-.25-1.85v-.45m7.9 0v.75Q-.45-.15-1.5 1.2l-1.3 1.1-1.5.35-1.1-.2q-.95-.3-1.7-1.25Q-7.7.5-8-.4M9.15-2.95h-18.2" fill="none" stroke="#666" stroke-linecap="round" stroke-linejoin="round" transform="translate(12.25 3.45)"/></g><g id="b" transform="translate(41.5 18.5)"><use height="5" transform="translate(-35 -6.75)" width="5" xlink:href="#c"/><use height="20.7" transform="matrix(1.44 0 0 1.44 -41.496 -18.504)" width="25" xlink:href="#d"/></g><g id="d" transform="translate(12.15 10.35)"><use height="9.65" transform="translate(-11.918 -9.52) scale(.7363)" width="10.05" xlink:href="#e"/><use height="10.55" transform="translate(.4 -5.75)" width="12.45" xlink:href="#f"/><use height="9.65" transform="matrix(0 -.7363 .7363 0 -11.92 8.968)" width="10.05" xlink:href="#e"/><use height="20.7" transform="translate(-12.15 -10.35)" width="16.2" xlink:href="#g"/><use height="4.9" transform="translate(1.4 -3.15)" width="4.8" xlink:href="#h"/></g><g id="j"><path d="M-.35-1.9-.4-3.2l.1-.6.6-.45.3-.1Q2-3.4 1.7-1.4l-.2 1Q3.1.9 4.3 2.75q.4.6-.1 1.15l-.6.4L-.1.95q-2.2 1.3-4.45.35.1-1 1.15-1.25Q-2.35-.2-2.25-.5l-.2-.15-1.35-1.3-.05-.6.5-.65.15-.05.3-.05 1.6.9.95.5" fill="#fc6" fill-rule="evenodd" transform="translate(5.05 4.85)"/><path d="M-.35-1.9-.4-3.2l.1-.6.6-.45.3-.1Q2-3.4 1.7-1.4l-.2 1Q3.1.9 4.3 2.75q.4.6-.1 1.15l-.6.4L-.1.95q-2.2 1.3-4.45.35.1-1 1.15-1.25Q-2.35-.2-2.25-.5l-.2-.15-1.35-1.3-.05-.6.5-.65.15-.05.3-.05 1.6.9.95.5Z" fill="none" stroke="#630" stroke-linecap="round" stroke-linejoin="round" transform="translate(5.05 4.85)"/></g><g id="k"><path d="M4.25-.85q2.05 1.5 1.3 2.6-.75 1.1-3.85 1.8l-5.95.65-.5-.4q-.7-1.4.35-2.55Q-6-.1-5.6-2.15q.3-1.6 1.8-1.85l1.95-.05L.4-3.1q1.8.75 3.85 2.25" fill="#fc6" fill-rule="evenodd" transform="translate(5.95 4.3)"/><path d="M10.2 3.45q2.05 1.5 1.3 2.6-.75 1.1-3.85 1.8L1.7 8.5l-.5-.4q-.7-1.4.35-2.55-1.6-1.35-1.2-3.4Q.65.55 2.15.3L4.1.25l2.25.95q1.8.75 3.85 2.25Z" fill="none" stroke="#630" stroke-linecap="round" stroke-linejoin="round" stroke-width=".5"/></g><g id="h" fill-rule="evenodd"><path d="M4-.35q.8-.75-.25-1.1l-.35.15q-.6.65.2 1L4-.35m-.15-2.8q4.15 1.5 1 4.5Q4.2 2 3.3 1.6 0 .1 2.5-2.5q.6-.65 1.35-.65" fill="#fff" transform="translate(-1.4 3.15)"/><path d="m4-.35-.4.05q-.8-.35-.2-1l.35-.15Q4.8-1.1 4-.35" transform="translate(-1.4 3.15)"/></g><use height="5" width="5" xlink:href="#i" id="c"/><use height="9.65" width="10.05" xlink:href="#j" id="e"/><use height="8.75" transform="translate(0 .95)" width="11.95" xlink:href="#k" id="f"/><use height="20.7" width="16.2" xlink:href="#l" id="g"/><path d="M1.75-1.8q.75.75.75 1.8t-.75 1.75q-.7.75-1.75.75t-1.8-.75q-.7-.7-.7-1.75t.7-1.8q.75-.7 1.8-.7t1.75.7" fill-rule="evenodd" transform="translate(2.5 2.5)" id="i"/><path d="M7.8-3.4Q8 3.15 7.3 9.55l-.45.5q-1.95.7-2.45-.65l-.2.1-.4.15-.25.25q-.7.75-1.65.2l-.45-.3-.1.05Q-.9 11.2-1.5 8.7l-.25-1.85v-4.3h-4.4v-.1h-.05q-.95-.05-1.25-.95-.3-1.1.1-1.75l-.6-.75q-.65-2.2 1.6-2.6l4.7.1.1-4.45Q-1.5-10 .4-10.35l1.35.85.15-.2q.55-.6 1.25-.65l1.4.95q.45-.9 1.35-.95Q8.5-9.3 8-6.15 7.75-4.8 7.8-3.4" fill="#333" fill-rule="evenodd" transform="translate(8.1 10.35)" id="l"/></defs></svg>

<?xml version="1.0" encoding="UTF-8" standalone="no"?>
<svg xmlns:xlink="http://www.w3.org/1999/xlink" height="100.8px" width="132.65px" xmlns="http://www.w3.org/2000/svg">
  <g transform="matrix(1.0, 0.0, 0.0, 1.0, 77.75, 73.55)">
    <use height="10.9" transform="matrix(1.0, 0.0, 0.0, 1.0, -12.25, -3.45)" width="24.45" xlink:href="#shape0"/>
    <use height="29.8" transform="matrix(1.0, 0.0, 0.0, 1.0, -45.1, -73.55)" width="100.0" xlink:href="#sprite0"/>
  </g>
  <defs>
    <g id="shape0" transform="matrix(1.0, 0.0, 0.0, 1.0, 12.25, 3.45)">
      <path d="M-10.7 6.7 Q-0.35 4.45 10.75 6.95" fill="none" stroke="#333333" stroke-linecap="round" stroke-linejoin="round" stroke-width="1.0"/>
      <path d="M2.45 -2.7 L2.35 -1.9 Q2.3 -1.15 2.7 -0.6 3.1 -0.1 3.65 -0.1 4.2 -0.1 4.6 -0.6 5.0 -1.15 5.0 -1.9 L4.9 -2.7 8.3 -2.7 8.3 -2.3 8.05 -0.45 7.15 1.15 Q6.15 2.35 4.85 2.55 L4.35 2.6 3.35 2.45 Q2.3 2.1 1.55 1.15 0.5 -0.2 0.4 -1.95 L0.4 -2.3 0.4 -2.7 2.45 -2.7 M3.75 -2.7 L3.85 -2.35 3.65 -1.9 3.35 -1.7 3.0 -1.9 Q2.85 -2.1 2.85 -2.35 L2.9 -2.7 3.75 -2.7 M-8.0 -0.4 Q-8.3 -1.25 -8.25 -2.25 L-8.25 -2.7 -4.7 -2.7 -4.8 -1.9 Q-4.85 -1.15 -4.45 -0.6 -4.05 -0.1 -3.5 -0.1 -2.95 -0.1 -2.55 -0.6 -2.15 -1.15 -2.15 -1.9 L-2.25 -2.7 -0.35 -2.7 -0.35 -2.25 -0.35 -1.95 Q-0.45 -0.15 -1.5 1.2 L-2.8 2.3 -4.3 2.65 -5.4 2.45 Q-6.35 2.15 -7.1 1.2 -7.7 0.5 -8.0 -0.4 M-4.2 -2.8 L-3.45 -2.8 -3.4 -2.7 -3.3 -2.35 -3.5 -1.9 -3.8 -1.7 Q-4.05 -1.75 -4.15 -1.9 L-4.3 -2.35 -4.25 -2.7 -4.2 -2.8" fill="#ffffff" fill-rule="evenodd" stroke="none"/>
      <path d="M4.9 -2.7 L5.0 -1.9 Q5.0 -1.15 4.6 -0.6 4.2 -0.1 3.65 -0.1 3.1 -0.1 2.7 -0.6 2.3 -1.15 2.35 -1.9 L2.45 -2.7 2.9 -2.7 2.85 -2.35 Q2.85 -2.1 3.0 -1.9 L3.35 -1.7 3.65 -1.9 3.85 -2.35 3.75 -2.7 4.9 -2.7 M-4.7 -2.7 L-4.7 -2.8 -4.2 -2.8 -4.25 -2.7 -4.3 -2.35 -4.15 -1.9 Q-4.05 -1.75 -3.8 -1.7 L-3.5 -1.9 -3.3 -2.35 -3.4 -2.7 -3.45 -2.8 -2.25 -2.8 -2.25 -2.7 -2.15 -1.9 Q-2.15 -1.15 -2.55 -0.6 -2.95 -0.1 -3.5 -0.1 -4.05 -0.1 -4.45 -0.6 -4.85 -1.15 -4.8 -1.9 L-4.7 -2.7" fill="#000000" fill-rule="evenodd" stroke="none"/>
      <path d="M0.4 -1.95 Q0.5 -0.2 1.55 1.15 2.3 2.1 3.35 2.45 L0.9 2.3 -2.8 2.3 -1.5 1.2 Q-0.45 -0.15 -0.35 -1.95 L0.15 -1.95 0.4 -1.95 M4.85 2.55 Q6.15 2.35 7.15 1.15 L8.05 -0.45 8.65 -0.15 Q12.15 1.65 12.2 2.65 12.2 3.6 9.05 3.05 L4.85 2.55 M-5.4 2.45 L-8.15 2.85 -12.25 2.65 Q-12.25 1.7 -8.55 -0.1 L-8.0 -0.4 Q-7.7 0.5 -7.1 1.2 -6.35 2.15 -5.4 2.45" fill="#6596cc" fill-opacity="0.43137255" fill-rule="evenodd" stroke="none"/>
      <path d="M0.4 -2.7 L0.4 -2.3 0.4 -1.95 Q0.5 -0.2 1.55 1.15 2.3 2.1 3.35 2.45 L4.35 2.6 4.85 2.55 Q6.15 2.35 7.15 1.15 L8.05 -0.45 8.3 -2.3 8.3 -2.7 M-8.0 -0.4 Q-8.3 -1.25 -8.25 -2.25 L-8.25 -2.7 M-0.35 -2.7 L-0.35 -2.25 -0.35 -1.95 Q-0.45 -0.15 -1.5 1.2 L-2.8 2.3 -4.3 2.65 -5.4 2.45 Q-6.35 2.15 -7.1 1.2 -7.7 0.5 -8.0 -0.4" fill="none" stroke="#666666" stroke-linecap="round" stroke-linejoin="round" stroke-width="1.0"/>
      <path d="M9.15 -2.95 L-9.05 -2.95" fill="none" stroke="#666666" stroke-linecap="round" stroke-linejoin="round" stroke-width="1.0"/>
    </g>
    <g id="sprite0" transform="matrix(1.0, 0.0, 0.0, 1.0, 41.5, 18.5)">
      <use height="5.0" transform="matrix(1.0, 0.0, 0.0, 1.0, -35.0, -6.75)" width="5.0" xlink:href="#sprite1"/>
      <use height="20.7" transform="matrix(1.44, 0.0, 0.0, 1.44, -41.4958, -18.5039)" width="25.0" xlink:href="#sprite2"/>
    </g>
    <g id="sprite1" transform="matrix(1.0, 0.0, 0.0, 1.0, 2.5, 2.5)">
      <use height="5.0" transform="matrix(1.0, 0.0, 0.0, 1.0, -2.5, -2.5)" width="5.0" xlink:href="#shape1"/>
    </g>
    <g id="shape1" transform="matrix(1.0, 0.0, 0.0, 1.0, 2.5, 2.5)">
      <path d="M1.75 -1.8 Q2.5 -1.05 2.5 0.0 2.5 1.05 1.75 1.75 1.05 2.5 0.0 2.5 -1.05 2.5 -1.8 1.75 -2.5 1.05 -2.5 0.0 -2.5 -1.05 -1.8 -1.8 -1.05 -2.5 0.0 -2.5 1.05 -2.5 1.75 -1.8" fill="#000000" fill-rule="evenodd" stroke="none"/>
    </g>
    <g id="sprite2" transform="matrix(1.0, 0.0, 0.0, 1.0, 12.15, 10.35)">
      <use height="9.65" transform="matrix(0.7363, 0.0, 0.0, 0.7363, -11.9181, -9.5209)" width="10.05" xlink:href="#sprite3"/>
      <use height="10.55" transform="matrix(1.0, 0.0, 0.0, 1.0, 0.4, -5.75)" width="12.45" xlink:href="#sprite4"/>
      <use height="9.65" transform="matrix(0.0, -0.7363, 0.7363, 0.0, -11.9209, 8.9681)" width="10.05" xlink:href="#sprite3"/>
      <use height="20.7" transform="matrix(1.0, 0.0, 0.0, 1.0, -12.15, -10.35)" width="16.2" xlink:href="#sprite5"/>
      <use height="4.9" transform="matrix(1.0, 0.0, 0.0, 1.0, 1.4, -3.15)" width="4.8" xlink:href="#shape5"/>
    </g>
    <g id="sprite3" transform="matrix(1.0, 0.0, 0.0, 1.0, 5.05, 4.85)">
      <use height="9.65" transform="matrix(1.0, 0.0, 0.0, 1.0, -5.05, -4.85)" width="10.05" xlink:href="#shape2"/>
    </g>
    <g id="shape2" transform="matrix(1.0, 0.0, 0.0, 1.0, 5.05, 4.85)">
      <path d="M-0.35 -1.9 L-0.4 -3.2 -0.3 -3.8 0.3 -4.25 0.6 -4.35 Q2.0 -3.4 1.7 -1.4 L1.5 -0.4 Q3.1 0.9 4.3 2.75 4.7 3.35 4.2 3.9 L3.6 4.3 -0.1 0.95 Q-2.3 2.25 -4.55 1.3 -4.45 0.3 -3.4 0.05 -2.35 -0.2 -2.25 -0.5 L-2.45 -0.65 -3.8 -1.95 -3.85 -2.55 -3.35 -3.2 -3.2 -3.25 -2.9 -3.3 -1.3 -2.4 -0.35 -1.9" fill="#ffcc66" fill-rule="evenodd" stroke="none"/>
      <path d="M-0.35 -1.9 L-0.4 -3.2 -0.3 -3.8 0.3 -4.25 0.6 -4.35 Q2.0 -3.4 1.7 -1.4 L1.5 -0.4 Q3.1 0.9 4.3 2.75 4.7 3.35 4.2 3.9 L3.6 4.3 -0.1 0.95 Q-2.3 2.25 -4.55 1.3 -4.45 0.3 -3.4 0.05 -2.35 -0.2 -2.25 -0.5 L-2.45 -0.65 -3.8 -1.95 -3.85 -2.55 -3.35 -3.2 -3.2 -3.25 -2.9 -3.3 -1.3 -2.4 -0.35 -1.9 Z" fill="none" stroke="#663300" stroke-linecap="round" stroke-linejoin="round" stroke-width="1.0"/>
    </g>
    <g id="sprite4" transform="matrix(1.0, 0.0, 0.0, 1.0, 5.95, 5.25)">
      <use height="8.75" transform="matrix(1.0, 0.0, 0.0, 1.0, -5.95, -4.3)" width="11.95" xlink:href="#shape3"/>
    </g>
    <g id="shape3" transform="matrix(1.0, 0.0, 0.0, 1.0, 5.95, 4.3)">
      <path d="M4.25 -0.85 Q6.3 0.65 5.55 1.75 4.8 2.85 1.7 3.55 L-4.25 4.2 -4.75 3.8 Q-5.45 2.4 -4.4 1.25 -6.0 -0.1 -5.6 -2.15 -5.3 -3.75 -3.8 -4.0 L-1.85 -4.05 0.4 -3.1 Q2.2 -2.35 4.25 -0.85" fill="#ffcc66" fill-rule="evenodd" stroke="none"/>
      <path d="M4.25 -0.85 Q6.3 0.65 5.55 1.75 4.8 2.85 1.7 3.55 L-4.25 4.2 -4.75 3.8 Q-5.45 2.4 -4.4 1.25 -6.0 -0.1 -5.6 -2.15 -5.3 -3.75 -3.8 -4.0 L-1.85 -4.05 0.4 -3.1 Q2.2 -2.35 4.25 -0.85 Z" fill="none" stroke="#663300" stroke-linecap="round" stroke-linejoin="round" stroke-width="0.5"/>
    </g>
    <g id="sprite5" transform="matrix(1.0, 0.0, 0.0, 1.0, 8.1, 10.35)">
      <use height="20.7" transform="matrix(1.0, 0.0, 0.0, 1.0, -8.1, -10.35)" width="16.2" xlink:href="#shape4"/>
    </g>
    <g id="shape4" transform="matrix(1.0, 0.0, 0.0, 1.0, 8.1, 10.35)">
      <path d="M7.8 -3.4 Q8.0 3.15 7.3 9.55 L6.85 10.05 Q4.9 10.75 4.4 9.4 L4.2 9.5 3.8 9.65 3.55 9.9 Q2.85 10.65 1.9 10.1 L1.45 9.8 1.35 9.85 Q-0.9 11.2 -1.5 8.7 L-1.75 6.85 -1.75 2.55 -3.95 2.55 -6.15 2.55 -6.15 2.45 -6.2 2.45 Q-7.15 2.4 -7.45 1.5 -7.75 0.4 -7.35 -0.25 L-7.95 -1.0 Q-8.6 -3.2 -6.35 -3.6 L-1.65 -3.5 -1.55 -7.95 Q-1.5 -10.0 0.4 -10.35 L1.75 -9.5 1.9 -9.7 Q2.45 -10.3 3.15 -10.35 L4.55 -9.4 Q5.0 -10.3 5.9 -10.35 8.5 -9.3 8.0 -6.15 7.75 -4.8 7.8 -3.4" fill="#333333" fill-rule="evenodd" stroke="none"/>
    </g>
    <g id="shape5" transform="matrix(1.0, 0.0, 0.0, 1.0, -1.4, 3.15)">
      <path d="M4.0 -0.35 Q4.8 -1.1 3.75 -1.45 L3.4 -1.3 Q2.8 -0.65 3.6 -0.3 L4.0 -0.35 M3.85 -3.15 Q8.0 -1.65 4.85 1.35 4.2 2.0 3.3 1.6 0.0 0.1 2.5 -2.5 3.1 -3.15 3.85 -3.15" fill="#ffffff" fill-rule="evenodd" stroke="none"/>
      <path d="M4.0 -0.35 L3.6 -0.3 Q2.8 -0.65 3.4 -1.3 L3.75 -1.45 Q4.8 -1.1 4.0 -0.35" fill="#000000" fill-rule="evenodd" stroke="none"/>
    </g>
  </defs>
</svg>
